img/ui/file-tool/normal.svg

<svg width="100" height="100" viewBox="0 0 100 100" fill="none" xmlns="http://www.w3.org/2000/svg">
<rect x="10" y="10" width="80" height="80" rx="17" fill="#D3D1BB" stroke="#9C9F83" stroke-width="4"/>
<path d="M36 52C36 50.8954 36.8954 50 38 50H62C63.1046 50 64 50.8954 64 52C64 53.1046 63.1046 54 62 54H38C36.8954 54 36 53.1046 36 52Z" fill="#9C9F83"/>
<path d="M38 62C36.8954 62 36 62.8954 36 64C36 65.1046 36.8954 66 38 66H62C63.1046 66 64 65.1046 64 64C64 62.8954 63.1046 62 62 62H38Z" fill="#9C9F83"/>
<path fill-rule="evenodd" clip-rule="evenodd" d="M40 18L24 34V74C24 78.4183 27.5817 82 32 82H68C72.4183 82 76 78.4183 76 74V26C76 21.5817 72.4183 18 68 18H40ZM40.0001 23.6568L29.6568 34.0001H36.0001C38.2092 34.0001 40.0001 32.2092 40.0001 30.0001V23.6568ZM44.0001 22V30.0001C44.0001 34.4183 40.4183 38.0001 36.0001 38.0001H28V74C28 76.2091 29.7909 78 32 78H68C70.2091 78 72 76.2091 72 74V26C72 23.7909 70.2091 22 68 22H44.0001Z" fill="#9C9F83"/>
</svg>

<svg width="100" height="100" fill="none" xmlns="http://www.w3.org/2000/svg"><rect x="10" y="10" width="80" height="80" rx="17" fill="#D3D1BB" stroke="#9C9F83" stroke-width="4"/><path d="M36 52a2 2 0 0 1 2-2h24a2 2 0 1 1 0 4H38a2 2 0 0 1-2-2ZM38 62a2 2 0 1 0 0 4h24a2 2 0 1 0 0-4H38Z" fill="#9C9F83"/><path fill-rule="evenodd" clip-rule="evenodd" d="M40 18 24 34v40a8 8 0 0 0 8 8h36a8 8 0 0 0 8-8V26a8 8 0 0 0-8-8H40Zm0 5.657L29.657 34H36a4 4 0 0 0 4-4v-6.343ZM44 22v8a8 8 0 0 1-8 8h-8v36a4 4 0 0 0 4 4h36a4 4 0 0 0 4-4V26a4 4 0 0 0-4-4H44Z" fill="#9C9F83"/></svg>
